X: 1
T: Tarbolton Lodge
B: Athole, Skye collections
S: printed page in Concord Slow Scottish Session collection
R: reel
Z: 2015 John Chambers <jc:trillian.mit.edu>
Z: final notes shortened to fix the rhythm at repeats.
M: C|
L: 1/8
K: Edor
F |\
"Em"Eee^d e2BA | "G"GBAF "A7"GEEF | "D"Dddc d2AF | "Em"GBAG "Bm"FDDF |
"Em"Eee^d efga | "D"fedf "Em"eBBA | "G"GABG "D"FGAF | "Bm"BGAF "Em"GEE :|
|: f |\
"Em"gfef gebe | "Em"gebe "A7"geef | "D"defg adfd | "A7"ABAG "D"FDDF |
"G(Em)"G2BG "D"F2AF | "Em"Eeef gefd | "G"BcdB "D"AGFA | "Bm"BGAF "Em"GEEe  :|
